fs/box_edit_20_filled.svg

<svg viewBox="0 0 20 20" fill="none" xmlns="http://www.w3.org/2000/svg" height="1em" width="1em">
  <path d="M17.4212 4.99247L14.3751 6.21088L6.87504 3.21084L8.70013 2.4808C9.53457 2.14702 10.4654 2.14702 11.2999 2.4808L17.0571 4.78369C17.1898 4.83679 17.312 4.90749 17.4212 4.99247ZM10.0001 7.96088L13.0289 6.74939L5.52875 3.74935L2.94291 4.78369C2.81019 4.83678 2.68812 4.90745 2.57894 4.99239L10.0001 7.96088ZM2.03542 5.85202C2.01215 5.95711 2 6.06575 2 6.1764V13.8223C2 14.4357 2.37343 14.9873 2.94291 15.2151L8.70013 17.5179C8.81846 17.5653 8.93874 17.6059 9.0604 17.6398L9.43163 16.1549C9.4515 16.0754 9.47437 15.9969 9.50015 15.9195V8.83791L2.03542 5.85202ZM18 6.1764V9.13343C17.0111 8.82046 15.8861 9.05604 15.102 9.84016L10.5001 14.442V8.83791L17.9646 5.85213C17.9879 5.95719 18 6.06579 18 6.1764ZM10.9798 15.3767L15.8092 10.5473C16.5395 9.81693 17.7237 9.81693 18.454 10.5473C19.1843 11.2776 19.1843 12.4617 18.454 13.1921L13.6246 18.0215C13.343 18.3031 12.9902 18.5028 12.6039 18.5994L11.106 18.9739C10.4546 19.1368 9.86451 18.5467 10.0274 17.8953L10.4018 16.3974C10.4984 16.0111 10.6982 15.6583 10.9798 15.3767Z" fill="#212121"/>
</svg>

<svg viewBox="0 0 20 20" fill="none" xmlns="http://www.w3.org/2000/svg" height="1em" width="1em">
  <path d="m17.421 4.992-3.046 1.219-7.5-3L8.7 2.48a3.5 3.5 0 0 1 2.6 0l5.757 2.303a1.5 1.5 0 0 1 .364.208Zm-7.42 2.969 3.028-1.212-7.5-3-2.586 1.035a1.499 1.499 0 0 0-.364.208L10 7.961ZM2.034 5.852A1.5 1.5 0 0 0 2 6.176v7.646a1.5 1.5 0 0 0 .943 1.393L8.7 17.518c.118.047.239.088.36.122l.372-1.485c.02-.08.042-.158.068-.236V8.838L2.035 5.852ZM18 6.176v2.957a2.87 2.87 0 0 0-2.898.707L10.5 14.442V8.838l7.465-2.986c.023.105.035.214.035.324Zm-7.02 9.2 4.83-4.829a1.87 1.87 0 1 1 2.644 2.645l-4.83 4.83a2.197 2.197 0 0 1-1.02.577l-1.498.375a.89.89 0 0 1-1.079-1.079l.375-1.498c.096-.386.296-.739.578-1.02Z" fill="#212121"/>
</svg>
